X: 2957
T: Barry Finn
R: jig
M: 6/8
K: Dmixolydian
|:D3 FED|FAA A2 B|c3 BAG|EDC EGE|
D3 FED|FAA EGG|EDC A,B,C|D3 A3:|
|:d2 e d2 c|ABc EFG|ABc EFG|A3 A2G|
FED EGG|CEE G2F|EDC A,B,C|D3 D2 A:|

